X:1
T: Miss Sharpe's Fancy
C:Charles Sharpe
R:Jig
Q:180
K:D
M:6/8
L:1/16
|:f2|d4A2 A2F2A2|B4A2 A2F2A2|d4A2 A2G2F2|E2C2A,2 A,4Bc|
d4A2 A2F2A2|B4A2 A2B2c2|d2g2f2 e2a2c2|d6d4:|
fg|a2f2d2 d2f2a2|g2e2d2 c2e2g2|f2e2d2 d2c2d2|e2c2A2 A4fg|
a2f2d2 d2f2a2|g2e2d2 c2e2g2|f2a2d2 e2g2c2|d6d4fg|
a2f2d2 d2f2a2|g2e2d2 c2e2g2|f2e2d2 d2c2d2|e2c2A2 A4G2|
F2A2d2 F2A2d2|G2B2d2 G2B2d2|A2g2f2 e2a2c2|d6D4||
